src/shuffle.svg

<svg viewBox="0 0 16 16" fill="none" xmlns="http://www.w3.org/2000/svg"><path fill-rule="evenodd" clip-rule="evenodd" d="M12.971 3.99299C13.289 3.99599 13.631 3.99999 14 3.99999V4.99999C13.581 4.99999 13.211 4.99599 12.881 4.99299C12.035 4.98399 11.448 4.97799 10.954 5.04599C10.335 5.12999 9.904 5.32799 9.345 5.86199C8.795 6.38599 8.333 7.29499 7.855 8.29199L7.762 8.48499C7.562 8.90399 7.359 9.32699 7.153 9.70499C6.917 10.137 6.656 10.551 6.353 10.854C5.767 11.44 5.124 11.73 4.27 11.868C3.46 12 2.426 12 1.048 12H1V11C2.438 11 3.39 10.998 4.11 10.882C4.795 10.77 5.233 10.56 5.646 10.146C5.844 9.94899 6.051 9.63799 6.275 9.22599C6.467 8.87399 6.657 8.47699 6.859 8.05599L6.953 7.85899C7.411 6.90499 7.948 5.81299 8.655 5.13899C9.353 4.47199 9.975 4.16999 10.819 4.05499C11.39 3.97699 12.085 3.98399 12.971 3.99299Z" fill="#111111"/><path d="M12.172 7.328L15 4.5L12.172 1.672L11.464 2.379L13.586 4.5L11.464 6.621L12.172 7.328ZM12.172 14.329L15 11.5L12.172 8.672L11.464 9.379L13.586 11.5L11.464 13.621L12.172 14.328V14.329ZM6.886 5.837C6.7345 5.58819 6.55609 5.3568 6.354 5.147C5.767 4.56 5.124 4.27 4.27 4.132C3.46 4 2.426 4 1.048 4H1V5C2.438 5 3.39 5.002 4.11 5.119C4.795 5.23 5.233 5.441 5.646 5.854C5.844 6.051 6.051 6.362 6.275 6.774L6.327 6.871C6.493 6.538 6.677 6.184 6.886 5.837Z" fill="#111111"/><path d="M8.05701 10.149C8.24201 10.415 8.44101 10.657 8.65501 10.862C9.35301 11.528 9.97501 11.83 10.819 11.945C11.39 12.024 12.085 12.016 12.971 12.007C13.289 12.004 13.631 12 14 12V11C13.581 11 13.211 11.004 12.881 11.007C12.035 11.017 11.448 11.022 10.954 10.955C10.335 10.87 9.90401 10.672 9.34501 10.139C9.07201 9.87801 8.82101 9.52201 8.57801 9.10901C8.41301 9.45401 8.23701 9.81501 8.05701 10.149Z" fill="#111111"/></svg>

<svg viewBox="0 0 16 16" fill="none" xmlns="http://www.w3.org/2000/svg"><path fill-rule="evenodd" clip-rule="evenodd" d="M12.971 3.993c.318.003.66.007 1.029.007v1c-.419 0-.789-.004-1.119-.007-.846-.009-1.433-.015-1.927.053-.619.084-1.05.282-1.609.816-.55.524-1.012 1.433-1.49 2.43l-.093.193c-.2.419-.403.842-.609 1.22-.236.432-.497.846-.8 1.149-.586.586-1.229.876-2.083 1.014C3.46 12 2.426 12 1.048 12H1v-1c1.438 0 2.39-.002 3.11-.118.685-.112 1.123-.322 1.536-.736.198-.197.405-.508.629-.92.192-.352.382-.749.584-1.17l.094-.197c.458-.954.995-2.046 1.702-2.72.698-.667 1.32-.969 2.164-1.084.571-.078 1.266-.071 2.152-.062Z" fill="#111111"/><path d="M12.172 7.328 15 4.5l-2.828-2.828-.708.707L13.586 4.5l-2.122 2.121.708.707Zm0 7.001L15 11.5l-2.828-2.828-.708.707 2.122 2.121-2.122 2.121.708.707v.001ZM6.886 5.837a3.973 3.973 0 0 0-.532-.69c-.587-.587-1.23-.877-2.084-1.015C3.46 4 2.426 4 1.048 4H1v1c1.438 0 2.39.002 3.11.119.685.111 1.123.322 1.536.735.198.197.405.508.629.92l.052.097c.166-.333.35-.687.559-1.034Z" fill="#111111"/><path d="M8.057 10.149c.185.266.384.508.598.713.698.666 1.32.968 2.164 1.083.571.079 1.266.071 2.152.062.318-.003.66-.007 1.029-.007v-1c-.419 0-.789.004-1.119.007-.846.01-1.433.015-1.927-.052-.619-.085-1.05-.283-1.609-.816-.273-.261-.524-.617-.767-1.03-.165.345-.341.706-.521 1.04Z" fill="#111111"/></svg>
